;FLAVOR:Marlin
;TIME:8051
;Filament used: 4.36078m
;Layer height: 0.2
;MINX:76.105
;MINY:119.548
;MINZ:0.2
;MAXX:223.895
;MAXY:180.452
;MAXZ:10
;Generated with Cura_SteamEngine 5.4.0
M140 S50
M105
M190 S50
M104 S200
M105
M109 S200
M82 ;absolute extrusion mode
M201 X500.00 Y500.00 Z100.00 E5000.00 ;Setup machine max acceleration
M203 X500.00 Y500.00 Z10.00 E50.00 ;Setup machine max feedrate
M204 P500.00 R1000.00 T500.00 ;Setup Print/Retract/Travel acceleration
M205 X8.00 Y8.00 Z0.40 E5.00 ;Setup Jerk
M220 S100 ;Reset Feedrate
M221 S100 ;Reset Flowrate

G28 ;Home

G92 E0 ;Reset Extruder
G1 Z2.0 F3000 ;Move Z Axis up
G1 X10.1 Y20 Z0.28 F5000.0 ;Move to start position
G1 X10.1 Y200.0 Z0.28 F1500.0 E15 ;Draw the first line
G1 X10.4 Y200.0 Z0.28 F5000.0 ;Move to side a little
G1 X10.4 Y20 Z0.28 F1500.0 E30 ;Draw the second line
G92 E0 ;Reset Extruder
G1 Z2.0 F3000 ;Move Z Axis up

G92 E0
G92 E0
G1 F2700 E-5
;LAYER_COUNT:50
;LAYER:0
M107
;MESH:90-01-01-094_B PRINTPLAATHOUDER.STL
G0 F6000 X76.562 Y131.89 Z0.2
;TYPE:WALL-INNER
G1 F2700 E0
G1 F997.9 X76.53 Y131.381 E0.0204
G1 F1076.2 X76.615 Y130.735 E0.04456
G1 F1083.5 X76.847 Y130.175 E0.06689
G1 F1086 X77.228 Y129.678 E0.0899
G1 F1083.5 X77.725 Y129.297 E0.11297
G1 F1078.7 X78.284 Y129.065 E0.13537
G1 F1081.1 X78.904 Y128.984 E0.15845
G1 X79.525 Y129.065 E0.18157
G1 F1078.7 X80.084 Y129.297 E0.20397
G1 F1081.1 X80.582 Y129.678 E0.22712
G1 X80.963 Y130.176 E0.25027
G1 F1076.2 X81.195 Y130.735 E0.27271
G1 X81.28 Y131.381 E0.29687
G1 F997.9 X81.248 Y131.918 E0.31839
G1 F2700 E-4.68161
G0 F6000 X81.242 Y132.69
G0 X78.907 Y133.871
G0 X76.694 Y132.618
G0 X76.693 Y176.394
G0 X78.907 Y175.139
G0 X81.139 Y176.472
G0 X81.248 Y177.12
G1 F2700 E0.31839
G1 F993.8 X81.279 Y177.609 E0.33807
G1 F1071.4 X81.195 Y178.276 E0.36311
G1 F1078.7 X80.963 Y178.835 E0.38551
G1 F1083.5 X80.582 Y179.332 E0.40857
G1 F1086 X80.085 Y179.713 E0.43159
G1 F1081.1 X79.525 Y179.945 E0.45397
G1 X78.904 Y180.026 E0.47709
G1 X78.284 Y179.945 E0.50017
G1 X77.725 Y179.713 E0.52252
G1 F1086 X77.227 Y179.333 E0.54554
G1 X76.847 Y178.835 E0.56856
G1 F1081.1 X76.614 Y178.276 E0.59092
G1 F1073.8 X76.531 Y177.609 E0.6159
G1 F997.9 X76.562 Y177.121 E0.63546
G1 F2700 E-4.36454
G0 F6000 X76.844 Y176.339
G0 X76.694 Y132.618
G0 X78.907 Y133.871
G0 X81.141 Y132.576
G0 X82.541 Y134.76
G0 X130.69 Y135.127
G0 X131.173 Y136.826
G0 X131.515 Y137.066
G0 X131.763 Y137.244
G0 X131.473 Y137.354
G0 X82.147 Y137.587
G0 X82.148 Y171.225
G0 X158.582 Y171.083
G0 X158.854 Y170.562
G0 X158.552 Y171.105
G1 F2700 E0.63546
G1 F1200 X158.241 Y171.255 E0.64694
G1 X82.531 Y171.255 E3.16507
G1 X82.256 Y171.105 E3.17549
G1 X82.126 Y170.941 E3.18245
G1 X82.054 Y170.76 E3.18893
G1 X82.054 Y138.062 E4.27647
G1 X82.113 Y137.894 E4.28239
G1 X82.254 Y137.706 E4.29021
G1 X82.53 Y137.555 E4.30067
G1 X130.943 Y137.555 E5.91089
G1 F1142.9 X131.466 Y137.535 E5.92917
G1 F1006.3 X131.724 Y137.497 E5.93951
G1 F946.7 X131.962 Y137.505 E5.94955
G1 F960 X158.154 Y137.505 E7.03849
G1 F1066.7 X158.588 Y137.74 E7.05696
G1 F1200 X158.748 Y138.062 E7.06892
G1 X158.755 Y144.205 E7.27323
G1 X161.029 Y146.48 E7.38022
G1 X161.152 Y146.657 E7.38739
G1 X161.205 Y146.905 E7.39582
G1 X161.205 Y161.989 E7.89752
G1 X161.094 Y162.263 E7.90735
G1 X158.754 Y164.605 E8.01746
G1 X158.755 Y170.782 E8.22291
G1 X158.552 Y171.105 E8.2356
G1 F2700 E3.2356
G0 F6000 X158.854 Y170.562
G0 X158.658 Y171.226
G0 X82.148 Y171.225
G0 X82.147 Y137.587
G0 X131.473 Y137.354
G0 X131.763 Y137.244
G0 X131.515 Y137.066
G0 X130.701 Y136.034
G0 X130.69 Y135.127
G0 X82.541 Y134.76
G0 X81.141 Y132.576
G0 X78.907 Y133.871
G0 X76.694 Y132.618
G0 X76.693 Y176.394
G0 X78.907 Y175.139
G0 X81.125 Y176.413
G0 X82.542 Y174.25
G0 X130.691 Y173.883
G0 X131.464 Y172.004
G0 X161.771 Y171.882
G0 X162.018 Y171.824
G0 X161.949 Y171.606
G1 F2700 E8.2356
G1 F1165 X161.393 Y171.416 E8.25573
G1 F1188.1 X160.938 Y171.12 E8.27396
G1 F1200 X160.569 Y170.713 E8.29224
G1 X160.32 Y170.222 E8.31055
G1 X160.205 Y169.681 E8.32894
G1 X160.234 Y169.125 E8.34746
G1 X160.404 Y168.61 E8.3655
G1 X160.699 Y168.154 E8.38356
G1 X161.11 Y167.783 E8.40198
G1 X161.604 Y167.537 E8.42033
G1 X162.198 Y167.404 E8.44058
G1 X162.71 Y167.452 E8.45768
G1 X163.21 Y167.616 E8.47518
G1 X163.671 Y167.915 E8.49346
G1 X164.04 Y168.324 E8.51178
G1 X164.287 Y168.81 E8.52991
G1 X164.402 Y169.342 E8.54802
G1 X164.375 Y169.91 E8.56693
G1 X164.203 Y170.43 E8.58515
G1 X163.91 Y170.882 E8.60306
G1 X163.497 Y171.253 E8.62153
G1 F1179.4 X163.019 Y171.499 E8.63972
G1 F1148.3 X162.494 Y171.629 E8.65852
G1 F1145.6 X161.949 Y171.606 E8.67752
G1 F2700 E3.67752
G0 F6000 X161.962 Y171.727
G0 X164.205 Y168.217
G0 X164.76 Y166.867
G0 X165.744 Y167.057
G1 F2700 E8.67752
G1 F1200 X164.62 Y166.586 E8.71806
G1 X163.665 Y165.858 E8.758
G1 X162.94 Y164.912 E8.79764
G1 X162.474 Y163.797 E8.83783
G1 X162.329 Y162.686 E8.8751
G1 X162.326 Y146.357 E9.4182
G1 X162.383 Y145.648 E9.44186
G1 X162.725 Y144.512 E9.48132
G1 X163.357 Y143.492 E9.52123
G1 X164.223 Y142.678 E9.56076
G1 X165.292 Y142.098 E9.60121
G1 X166.465 Y141.826 E9.64126
G1 X167.669 Y141.86 E9.68132
G1 X168.815 Y142.206 E9.72114
G1 X169.839 Y142.838 E9.76116
G1 X170.665 Y143.717 E9.80128
G1 X171.236 Y144.784 E9.84153
G1 X171.496 Y145.898 E9.87957
G1 X171.526 Y146.408 E9.89657
G1 X171.52 Y162.686 E10.43798
G1 X171.369 Y163.806 E10.47556
G1 X170.912 Y164.911 E10.51534
G1 X170.175 Y165.865 E10.55543
G1 X169.228 Y166.594 E10.59518
G1 X168.118 Y167.055 E10.63516
G1 X166.925 Y167.21 E10.67517
G1 X165.744 Y167.057 E10.71478
G1 F2700 E5.71478
G0 F6000 X165.73 Y167.157
G0 X169.319 Y166.751
G0 X174.309 Y168.654
G0 X176.056 Y170.692
G1 F2700 E10.71478
G1 F1200 X175.54 Y170.476 E10.73338
G1 X175.104 Y170.146 E10.75157
G1 X174.774 Y169.71 E10.76976
G1 X174.559 Y169.196 E10.78829
G1 X174.491 Y168.652 E10.80652
G1 X174.563 Y168.11 E10.82471
G1 X174.778 Y167.594 E10.8433
G1 X175.106 Y167.161 E10.86137
G1 X175.536 Y166.842 E10.87917
G1 X176.045 Y166.621 E10.89763
G1 X176.598 Y166.551 E10.91617
G1 X177.138 Y166.62 E10.93428
G1 X177.655 Y166.835 E10.9529
G1 X178.088 Y167.169 E10.97109
G1 X178.42 Y167.605 E10.98932
G1 X178.629 Y168.109 E11.00746
G1 X178.695 Y168.65 E11.02559
G1 X178.632 Y169.187 E11.04357
G1 X178.421 Y169.704 E11.06215
G1 X178.087 Y170.143 E11.08049
G1 X177.648 Y170.477 E11.09884
G1 X177.136 Y170.691 E11.1173
G1 X176.598 Y170.754 E11.13531
G1 X176.056 Y170.692 E11.15346
G0 F6000 X176.043 Y170.791
G0 X178.264 Y170.193
G0 X178.788 Y168.067
G0 X178.105 Y166.942
G0 X179.323 Y166.93
G0 X179.541 Y169.603
G0 X179.754 Y169.855
G0 X179.754 Y169.85
G1 F1200 X179.551 Y169.61 E11.16391
G1 X179.497 Y169.411 E11.17077
G1 X179.495 Y166.758 E11.25901
G1 X178.154 Y166.758 E11.30361
G1 X177.918 Y166.691 E11.31177
G1 X177.748 Y166.56 E11.31891
G1 X177.595 Y166.272 E11.32975
G1 X177.595 Y155.731 E11.68035
G1 F1233.9 X177.8 Y155.413 E11.69259
G1 F1237.1 X178.16 Y155.256 E11.70526
G1 F1203 X179.495 Y155.255 E11.74955
G1 F1200 X179.497 Y152.594 E11.83806
G1 X179.553 Y152.395 E11.84493
G1 X179.748 Y152.164 E11.85499
G1 X180.025 Y152.054 E11.8649
G1 X222.194 Y152.055 E13.26745
G1 X222.523 Y152.233 E13.27989
G1 X222.695 Y152.655 E13.29504
G1 X222.695 Y169.443 E13.85341
G1 X222.525 Y169.775 E13.86582
G1 X222.193 Y169.955 E13.87838
G1 X180.095 Y169.955 E15.27857
G1 X179.754 Y169.85 E15.29043
G1 F2700 E10.29043
G0 F6000 X179.754 Y169.855
G0 X183.688 Y170.135
G0 X183.012 Y172.671
G0 X183.671 Y175.109
G1 F2700 E15.29043
G1 F1159.4 X183.893 Y174.697 E15.30654
G1 F1200 X184.032 Y174.415 E15.317
G1 X184.357 Y173.994 E15.33469
G1 X184.775 Y173.647 E15.35276
G1 X185.414 Y173.379 E15.37581
G1 X186.025 Y173.3 E15.3963
G1 X186.634 Y173.378 E15.41672
G1 X187.197 Y173.619 E15.43709
G1 X187.683 Y173.981 E15.45724
G1 X188.016 Y174.415 E15.47544
G1 X188.158 Y174.706 E15.48621
G1 F1159.4 X188.378 Y175.107 E15.50195
G1 X188.429 Y174.575 E15.52035
G1 F1200 X188.506 Y173.984 E15.54017
G1 X188.772 Y173.358 E15.5628
G1 X189.18 Y172.814 E15.58541
G1 X189.721 Y172.4 E15.60807
G1 X190.347 Y172.138 E15.63064
G1 X190.937 Y172.06 E15.65044
G1 X223.495 Y172.055 E16.73332
G1 X223.495 Y149.945 E17.4687
G1 X221.348 Y149.945 E17.54011
G1 X221.046 Y149.864 E17.55051
G1 X220.846 Y149.676 E17.55964
G1 X220.751 Y149.448 E17.56785
G1 X220.748 Y123.517 E18.43032
G1 F1118.9 X220.699 Y122.89 E18.45276
G1 F1083.5 X220.37 Y123.547 E18.47982
G1 F1140.1 X220.015 Y124.012 E18.5003
G1 F1179.4 X219.528 Y124.382 E18.521
G1 F1200 X218.956 Y124.621 E18.54162
G1 X218.348 Y124.695 E18.56199
G1 X217.744 Y124.623 E18.58222
G1 X217.085 Y124.348 E18.60597
G1 X216.677 Y124.002 E18.62376
G1 X216.357 Y123.586 E18.64122
G1 X216.214 Y123.294 E18.65204
G1 F1121.5 X216.002 Y122.909 E18.66768
G1 X215.867 Y124.016 E18.70736
G1 F1200 X215.611 Y124.634 E18.72961
G1 X215.191 Y125.187 E18.75271
G1 X214.651 Y125.6 E18.77532
G1 X214.02 Y125.863 E18.79806
G1 X213.436 Y125.94 E18.81765
G1 X181.196 Y125.946 E19.88996
G1 X181.19 Y128.435 E19.97274
G1 F1240.3 X181.11 Y129.01 E19.99142
G1 F1311.5 X180.956 Y129.347 E20.0027
G1 F1326 X180.834 Y129.647 E20.01245
G1 F1269.8 X180.684 Y129.868 E20.02084
G1 F1215.2 X180.438 Y130.198 E20.03436
G1 F1200 X179.902 Y130.607 E20.05679
G1 X179.266 Y130.874 E20.07973
G1 X178.683 Y130.95 E20.09928
G1 F1159.4 X178.14 Y131 E20.11805
G1 X178.552 Y131.224 E20.1342
G1 F1200 X178.835 Y131.364 E20.1447
G1 X179.262 Y131.692 E20.16261
G1 X179.635 Y132.178 E20.18298
G1 X179.867 Y132.735 E20.20305
G1 X179.945 Y133.354 E20.2238
G1 X179.868 Y133.964 E20.24425
G1 X179.633 Y134.534 E20.26476
G1 X179.261 Y135.023 E20.28519
G1 X178.754 Y135.4 E20.30621
G1 X178.2 Y135.632 E20.32619
G1 X177.591 Y135.71 E20.34661
G1 X176.979 Y135.629 E20.36714
G1 X176.337 Y135.359 E20.3903
G1 X175.922 Y135.014 E20.40825
G1 X175.571 Y134.551 E20.42758
G1 X175.463 Y134.309 E20.43639
G1 F1121.5 X175.249 Y133.918 E20.45225
G1 X175.195 Y134.362 E20.46817
G1 F1200 X175.172 Y134.706 E20.47964
G1 X175.107 Y135.041 E20.49099
G1 X174.856 Y135.647 E20.5128
G1 X174.437 Y136.196 E20.53578
G1 X173.904 Y136.606 E20.55814
G1 X173.261 Y136.87 E20.58126
G1 X172.683 Y136.95 E20.60067
G1 X163.246 Y136.954 E20.91454
G1 F1151.1 X162.669 Y136.972 E20.93456
G1 X161.636 Y136.955 E20.97038
G1 F1200 X158.924 Y136.954 E21.06058
G1 F1066.7 X158.154 Y137.005 E21.08946
G1 F954.3 X131.826 Y137.005 E22.19062
G1 F1014.8 X131.551 Y136.887 E22.20239
G1 F1142.9 X131.289 Y136.714 E22.21335
G1 F1200 X131.108 Y136.534 E22.22184
G1 X130.978 Y136.342 E22.22955
G1 X130.862 Y136.018 E22.241
G1 X130.862 Y134.955 E22.27636
G1 X83.825 Y134.95 E23.84081
G1 X83.232 Y134.874 E23.8607
G1 X82.601 Y134.61 E23.88345
G1 X82.058 Y134.193 E23.90622
G1 X81.652 Y133.653 E23.92869
G1 F1159.4 X81.387 Y133.029 E23.95203
G1 F1083.5 X81.25 Y131.934 E23.99268
G1 F1118.9 X81.036 Y132.312 E24.00817
G1 F1200 X80.895 Y132.595 E24.01869
G1 X80.569 Y133.024 E24.03661
G1 X80.077 Y133.393 E24.05706
G1 X79.504 Y133.633 E24.07772
G1 X78.905 Y133.71 E24.09781
G1 X78.295 Y133.632 E24.11827
G1 X77.656 Y133.367 E24.14127
G1 X77.231 Y133.012 E24.15969
G1 F1121.5 X76.877 Y132.55 E24.18041
G1 F991.7 X76.562 Y131.89 E24.20984
G1 F987.7 X76.535 Y132.068 E24.21711
G1 F1116.3 X76.506 Y132.53 E24.23366
G1 F1200 X76.505 Y176.483 E25.69555
G1 F1113.7 X76.536 Y176.944 E25.7121
G1 F1045.8 X76.56 Y177.104 E25.71828
G1 F1086 X76.882 Y176.455 E25.74491
G1 F1159.4 X77.229 Y176 E25.7646
G1 F1200 X77.647 Y175.647 E25.7828
G1 X78.298 Y175.378 E25.80623
G1 X78.906 Y175.3 E25.82662
G1 X79.521 Y175.381 E25.84725
G1 X80.077 Y175.619 E25.86736
G1 X80.566 Y175.983 E25.88764
G1 X80.919 Y176.447 E25.90703
G1 F1159.4 X81.261 Y177.126 E25.9332
G1 X81.315 Y176.367 E25.9594
G1 F1200 X81.408 Y175.932 E25.97419
G1 X81.651 Y175.358 E25.99492
G1 X82.067 Y174.809 E26.01783
G1 X82.6 Y174.407 E26.04004
G1 X83.228 Y174.137 E26.06277
G1 X83.817 Y174.06 E26.08253
G1 X130.863 Y174.055 E27.64729
G1 X130.863 Y172.978 E27.68311
G1 X130.974 Y172.68 E27.69369
G1 X131.104 Y172.483 E27.70154
G1 X131.286 Y172.3 E27.71012
G1 X131.514 Y172.157 E27.71907
G1 X131.819 Y172.059 E27.72973
G1 X161.376 Y172.057 E28.7128
G1 F1153.8 X161.982 Y172.041 E28.73377
G1 F1113.7 X162.587 Y172.042 E28.75545
G1 F1159.4 X162.985 Y172.055 E28.76916
G1 F1200 X181.105 Y172.059 E29.37183
G1 X181.701 Y172.137 E29.39182
G1 X182.329 Y172.4 E29.41447
G1 X182.868 Y172.813 E29.43705
G1 X183.267 Y173.338 E29.45898
G1 X183.542 Y173.976 E29.48209
G1 X183.619 Y174.567 E29.50191
G1 F1159.4 X183.671 Y175.109 E29.52066
G0 F6000 X183.682 Y175.119
G1 F993.8 X183.651 Y175.61 E29.54042
G1 F1071.4 X183.735 Y176.276 E29.56542
G1 F1081.1 X183.968 Y176.837 E29.58785
G1 F1083.5 X184.348 Y177.333 E29.61086
G1 X184.843 Y177.712 E29.63383
G1 X185.404 Y177.945 E29.65621
G1 X186.024 Y178.027 E29.67924
G1 X186.645 Y177.946 E29.70231
G1 F1081.1 X187.206 Y177.712 E29.72475
G1 F1083.5 X187.702 Y177.333 E29.74775
G1 X188.082 Y176.837 E29.77076
G1 F1078.7 X188.315 Y176.276 E29.79324
G1 F1071.4 X188.399 Y175.609 E29.81828
G1 F993.8 X188.368 Y175.12 E29.83796
G1 F2700 E24.83796
G0 F6000 X188.359 Y174.322
G0 X187.986 Y174.067
G0 X186.686 Y173.182
G0 X177.217 Y155.552
G0 X177.153 Y155.378
G1 F2700 E29.83796
G1 F1200 X176.598 Y155.45 E29.85657
G1 X176.053 Y155.381 E29.87485
G1 X175.542 Y155.167 E29.89327
G1 X175.105 Y154.835 E29.91153
G1 X174.773 Y154.398 E29.92978
G1 X174.56 Y153.889 E29.94813
G1 X174.49 Y153.351 E29.96618
G1 X174.559 Y152.8 E29.98465
G1 X174.774 Y152.289 E30.00308
G1 X175.104 Y151.854 E30.02124
G1 X175.539 Y151.524 E30.0394
G1 X176.045 Y151.312 E30.05765
G1 X176.603 Y151.241 E30.07636
G1 X177.146 Y151.313 E30.09458
G1 X177.656 Y151.528 E30.11299
G1 X178.07 Y151.849 E30.13041
G1 X178.42 Y152.293 E30.14922
G1 X178.631 Y152.814 E30.16791
G1 X178.695 Y153.34 E30.18553
G1 X178.631 Y153.89 E30.20395
G1 X178.416 Y154.391 E30.22208
G1 X178.083 Y154.837 E30.2406
G1 F1269.8 X177.568 Y155.177 E30.25999
G1 X177.153 Y155.378 E30.27449
G1 F2700 E25.27449
G0 F6000 X177.184 Y155.479
G0 X177.968 Y154.718
G0 X178.277 Y154.317
G0 X178.471 Y153.847
G0 X178.539 Y153.339
G0 X178.222 Y151.74
G0 X181.722 Y147.156
G0 X182.31 Y147.278
G1 F2700 E30.27449
G1 F1200 X181.843 Y146.995 E30.29265
G1 X181.458 Y146.591 E30.31121
G1 X181.2 Y146.141 E30.32846
G1 X181.058 Y145.592 E30.34732
G1 X181.065 Y145.029 E30.36605
G1 X181.218 Y144.502 E30.3843
G1 X181.502 Y144.035 E30.40248
G1 X181.891 Y143.656 E30.42054
G1 X182.361 Y143.393 E30.43846
G1 X182.898 Y143.255 E30.4569
G1 X183.456 Y143.262 E30.47546
G1 X183.983 Y143.41 E30.49367
G1 X184.455 Y143.696 E30.51202
G1 F1176.5 X184.832 Y144.083 E30.53035
G1 F1129.4 X185.088 Y144.534 E30.54868
G1 F1069 X185.267 Y145.06 E30.56942
G1 F1034.5 X185.256 Y145.674 E30.59311
G1 F1073.8 X185.071 Y146.2 E30.61384
G1 F1134.8 X184.796 Y146.656 E30.63257
G1 F1179.4 X184.394 Y147.035 E30.65127
G1 F1200 X183.931 Y147.295 E30.66893
G1 X183.387 Y147.436 E30.68762
G1 X182.851 Y147.43 E30.70545
G1 X182.31 Y147.278 E30.72414
G0 F6000 X182.259 Y147.365
G0 X184.516 Y147.149
G0 X185.539 Y145.318
G0 X185.713 Y147.302
G0 X185.991 Y147.705
G0 X185.991 Y147.688
G1 F1200 X185.821 Y147.494 E30.73272
G1 X185.748 Y147.31 E30.7393
G1 X185.748 Y146.192 E30.77649
G1 F1113.7 X185.717 Y145.714 E30.79365
G1 F1032.3 X185.714 Y144.962 E30.82273
G1 F1106 X185.748 Y144.567 E30.83704
G1 F1200 X185.748 Y131.428 E31.27404
G1 F1098.4 X185.711 Y130.884 E31.29385
G1 F1039 X185.723 Y130.34 E31.31476
G1 F1021.3 X185.703 Y129.805 E31.33568
G1 F1039 X185.731 Y129.563 E31.34504
G1 F1151.1 X185.748 Y129.171 E31.35864
G1 F1200 X185.748 Y128.324 E31.38681
G1 X185.848 Y128.071 E31.39586
G1 X186.048 Y127.884 E31.40497
G1 X186.266 Y127.805 E31.41268
G1 X218.425 Y127.809 E32.48229
G1 X218.729 Y127.94 E32.4933
G1 X218.885 Y128.135 E32.50161
G1 X218.948 Y128.405 E32.51083
G1 X218.948 Y147.285 E33.13878
G1 X218.885 Y147.476 E33.14547
G1 X218.728 Y147.671 E33.1538
G1 X218.42 Y147.801 E33.16492
G1 X186.348 Y147.805 E34.23164
G1 X186.155 Y147.774 E34.23814
G1 X185.991 Y147.688 E34.2443
G0 F6000 X185.991 Y147.705
G0 X185.542 Y131.034
G0 X185.532 Y130.489
G0 X184.143 Y132.24
G0 X182.645 Y132.552
G0 X182.677 Y132.456
